public/icons/password.svg

<?xml version="1.0" ?><svg style="enable-background:new 0 0 24 24;" version="1.1" viewBox="0 0 24 24" xml:space="preserve" xmlns="http://www.w3.org/2000/svg" xmlns:xlink="http://www.w3.org/1999/xlink"><g id="info"/><g id="icons"><path d="M20,10h-4H8l0-2.8c0-2.1,1.5-4,3.6-4.2C14,2.8,16,4.7,16,7l0,0c0,0.6,0.4,1,1,1h1c0.6,0,1-0.4,1-1l0,0   c0-3.8-3-6.9-6.8-7C8.3-0.1,5,3.1,5,7v3H4c-1.1,0-2,0.9-2,2v7c0,2.8,2.2,5,5,5h10c2.8,0,5-2.2,5-5v-7C22,10.9,21.1,10,20,10z    M13,17.7V19c0,0.5-0.5,1-1,1s-1-0.5-1-1v-1.3c-0.6-0.3-1-1-1-1.7c0-1.1,0.9-2,2-2s2,0.9,2,2C14,16.7,13.6,17.4,13,17.7z" id="password"/></g></svg>

<?xml version="1.0" encoding="UTF-8" standalone="no"?>
<!DOCTYPE svg PUBLIC "-//W3C//DTD SVG 1.1//EN" "http://www.w3.org/Graphics/SVG/1.1/DTD/svg11.dtd">
<svg width="100%" height="100%" viewBox="0 0 64 64" version="1.1" xmlns="http://www.w3.org/2000/svg" xmlns:xlink="http://www.w3.org/1999/xlink" xml:space="preserve" xmlns:serif="http://www.serif.com/" style="fill-rule:evenodd;clip-rule:evenodd;stroke-linejoin:round;stroke-miterlimit:2;">
    <g transform="matrix(2.66667,0,0,2.66667,0,0)">
        <g id="icons">
            <path id="password" d="M20,10L8,10L8,7.2C8,5.1 9.5,3.2 11.6,3C14,2.8 16,4.7 16,7C16,7.6 16.4,8 17,8L18,8C18.6,8 19,7.6 19,7C19,3.2 16,0.1 12.2,0C8.3,-0.1 5,3.1 5,7L5,10L4,10C2.9,10 2,10.9 2,12L2,19C2,21.8 4.2,24 7,24L17,24C19.8,24 22,21.8 22,19L22,12C22,10.9 21.1,10 20,10ZM13,17.7L13,19C13,19.5 12.5,20 12,20C11.5,20 11,19.5 11,19L11,17.7C10.4,17.4 10,16.7 10,16C10,14.9 10.9,14 12,14C13.1,14 14,14.9 14,16C14,16.7 13.6,17.4 13,17.7Z" style="fill-rule:nonzero;"/>
        </g>
    </g>
</svg>
